X: 235
T: The Silver Strand
C: Nollaig Casey
R: reel
M: 4/4
L: 1/8
K: Gmaj
|:G2Bd BGAG|EGDE GABd|e3e {f}ed (3Bcd|egdB ~A2ab|
~g3f eage|a2ba gedg|~e3 g dB~B2|1 AB (3cBA BGAB:|2 ABcA BG ((3ABc)||
|:d2 {e}dB ABGD|EA{B}AG EGDB|d2 de dGBd|gedB ABcA|
dGBG ABGD|EA{B}AG EGDC|B,DGA BedB|1 ABcA BG ((3ABc):|2 AB (3cBA BGAB||

